!!!!SEGMENT: pl-kk--kk-i-275--001_anonim--rorate-caeli.krn
!!!cenid: 17xx:2082
!!!COM: Anonim
!!!COM-rismid: pe30004985
!!!CDT:
!!!CNT:
!!!OTL: Rorate caeli
!!!PDT:
!!!AGN: Sacred
!!!SMS-siglum: PL-Kk
!!!SMS-shelfmark: Kk.I.275
!!!SMS-shelfwork: 001 W
!!!SMS-variant:
!!!SMS-altvar:
!!!NIFC-rismid: 1001147319
!!!URL-scan: http://repozytorium.nifc.pl/skany/pl-kk-nut--i-275
!!!ONB-nifc: UWAGA: utwory w zbiorze: 1. Rorate caeli, 2. Alleluia virga Jesse floruit
!!!key:
**kern	**text
*Iempty	*
*I"Baſso Ripieno.	*
*I'B rip	*
*clefF4	*
*k[]	*
*C:	*
*M2/2	*
*met(C|)	*
=1	=1
!LO:TX:t=P:problem=metrum zatwierdzone przez Jacka Iwaszko	!
!LO:TX:a:i:t=à Capella	!
00r	.
=2	=2
.	.
=3	=3
.	.
=4	=4
.	.
=5	=5
0r	.
=6	=6
.	.
=7	=7
1r	.
=8	=8
2r	.
2C/	Ro-
=9	=9
2C/	-ra-
2C/	-te
=10	=10
*2\right	*
2D\	Cae-
<1F\	.
=11	=11
.	.
!LO:TX:t=P:global:problem=oddech jako rozdzielacz słów	!
4E,\	-li
4E\	Ro-
=12	=12
1D\	-ra-
=13	=13
1C/,	-te
=14	=14
1D\	cae-
=15	=15
2GG,/	-li
2G\	Ro-
=16	=16
2.G\	-ra-
4F\	-te
=17	=17
2.E\	de-
4D/	-su-
=18	=18
1C/	-per
=19	=19
2r	.
*	*ij
2C/	Ro-
=20	=20
2.C/	-ra-
4BB/	-te
=21	=21
2.AA/	de-
4GG/	-su-
!!LO:LB:g=original
=22	=22
2FF,/	-per
*	*Xij
2F\	Ro-
=23	=23
2.E\	-ra-
4C/	-te
=24	=24
2.D\	de-
4D\	-su-
=25	=25
2GG,/	-per
2C/	et
=26	=26
4C/	nu-
4D/	.
4E\	.
4F\	.
=27	=27
2G\	.
2GG/	-bes
=28	=28
4GG/	plu-
4AA/	.
4BB/	.
4C/	.
=29	=29
1D\	.
=30	=30
1C/	-ant
=31	=31
0D\	Ju-
=32-	=32
.	.
=33-	=33
0GG/	-stum
=34-	=34
.	.
=35	=35
2r	.
2G\	plu-
=36	=36
2G,\	-ant
2G\	ju-
=37	=37
0E\	-st(um)
=38-	=38
.	.
=39	=39
2r	.
*	*ij
2F\	plu-
=40	=40
2F\	-ant
2F\	ju-
=41-	=41
0D\	-st(um)
*	*Xij
=42-	=42
.	.
!!LO:LB:g=original
=43	=43
2r	.
1E\	plu-
=44-	=44
.	.
2C/	-ant
=45	=45
1D\	Ju-
=46	=46
2G\	-stum
(4G\	.
4A\)	.
=47	=47
2B\	plu-
1c\	-ant
=48-	=48
.	.
2B\	.
=49	=49
2c\	Ju-
2C/	.
=50	=50
2GG,/	-stum
2G\	a-
=51	=51
2G\	-pe-
2G\	-ri-
=52	=52
1D\	-a-
=53	=53
1GG/	-t(ur)
=54	=54
2r	.
*	*ij
2C/	a-
=55	=55
2C/	-pe-
2C/	-ri-
=56	=56
1F\	-a-
=57	=57
2F,\	-t(ur)
*	*Xij
1A\	ter-
=58-	=58
.	.
2F\	.
=59	=59
1G\	.
=60-	=60
2D,\	-ra
1F\	et
=61-	=61
.	.
2E\	.
!!LO:LB:g=original
=62	=62
2.D/	ger-
4D/	-mi-
=63	=63
1C/	-net
=64	=64
2r	.
2G\	et
=65	=65
2A\	ger-
2F\	.
=66	=66
2G\	.
2GG/	-mi-
=67	=67
2C,/	-net
1c\	et
=68-	=68
.	.
2B\	.
=69	=69
1A\	ger-
=70	=70
2.G\	.
4F\	.
=71	=71
2E\	.
2C/	.
=72	=72
2.D\	.
4D\	-mi-
=73-	=73
1GG/	-net
=74	=74
2BB/	Sal-
1D\	.
=75-	=75
.	.
1F\	.
=76-	=76
.	.
2F\	-va-
=77	=77
1C/	-to-
=78-	=78
1G\	.
=79-	=79
2C,/	-rem
2C/	Sal-
=80-	=80
2.F\	-va-
4E\	.
!!LO:LB:g=original
=81	=81
4D/	-to-
4C/	.
2BB-X/	.
=82-	=82
1C/	.
=83	=83
2FF,/	-rem
2F\	al-
=84	=84
2F\	-le-
2F\	-lu-
=85-	=85
1D\	-ia
=86	=86
2.G\	al-
4F\	.
=87	=87
4E\	.
4D\	.
2C/	-le-
=88	=88
1D\	-lu-
=89	=89
2G,\	-ia
*	*ij
2D\	al-
=90	=90
2E\	-le-
2C/	-lu-
=91	=91
2D,\	-ia
*	*Xij
2G\	al-
=92	=92
2A\	-le-
2F\	-lu-
=93	=93
2G,\	-ia
*	*ij
2C/	al-
=94-	=94
2D\	-le-
2BB/	-lu-
=95-	=95
2C,/	-ia
2C/	al-
=96-	=96
2GG/	-le-
2G\	.
=97-	=97
1D\	-lu-
=98-	=98
0GG/;	-ia
*	*Xij
!!LO:LB:g=original
=99	=99
.	.
=100	=100
*M2/2	*
*met(C|)	*
00r	.
=101	=101
.	.
=102	=102
.	.
=103	=103
.	.
=104	=104
*lig	*
1C/	Be-
=105-	=105
1D\	.
*Xlig	*
=106-	=106
2C/	-ne-
1F\	-di-
=107-	=107
.	.
2E\	.
=108	=108
*lig	*
1F\	-xi-
=109-	=109
1E\	.
*Xlig	*
=110-	=110
1D\,	-ſti
=111	=111
2.C/	Do-
4D/	.
=112	=112
4E\	.
!LO:TX:t=P:problem=♯above	!
4F#X\	.
1G\	.
=113-	=113
.	.
!LO:TX:t=P:problem=♯above	!
2F#X\	-mi-
=114	=114
2G\	-ne
1Fn\	ter-
=115-	=115
.	.
2A\	-r(am)
=116	=116
2G\	tu-
2GG/	.
=117	=117
2C,/	-am
1F\	a-
=118-	=118
.	.
2E\	-ver-
=119	=119
2F\	-ti-
2D/	.
=120	=120
1C/	.
=121-	=121
2FF,/	-sti
2F\	ca-
=122-	=122
2D\	-pti-
2D\	-vi-
!!LO:LB:g=original
=123	=123
1G\	-ta-
=124	=124
1E\	-tem
=125	=125
2r	.
*	*ij
2C/	ca-
=126	=126
2AA/	-pti-
2AA/	-vi-
=127-	=127
2D\	-ta-
2D\	-tem
*	*Xij
=128	=128
1BB/	Ja-
=129-	=129
2.C/	.
4BB/	.
=130	=130
1AA/	.
=131	=131
2GG,/	-cob
1G\	Ja-
=132-	=132
.	.
4F#X\	.
4E\	.
=133	=133
0D\	.
=134-	=134
.	.
=135-	=135
0GG/;	-cob.
=136	=136
.	.
=137||	=137||
*M2/2	*
*met(C|)	*
1r	.
=138	=138
1D\	Glo-
=139	=139
1E\	-ri-
=140	=140
1D\	-a
=141	=141
4C/	.
4D/	.
4E\	.
4F,\	.
=142-	=142
4G\	Pa-
4D\	.
1G\	.
=143-	=143
.	.
2F\	.
=144-	=144
1E\	.
=145-	=145
*lig	*
1D\	.
=146-	=146
1C/	.
*Xlig	*
=147-	=147
0D\	.
=148	=148
.	.
!!LO:LB:g=original
=149	=149
2GG,/	-tri
2C/	et
=150	=150
2.C/	Fi-
4C/	-li-
=151-	=151
1C/	-o
=152	=152
2r	.
2F\	et
=153	=153
2.F\	Spi-
4G\	-ri-
=154	=154
2A\	-tu-
2F\	.
=155	=155
1G\	-i
=156-	=156
2C/	San-
1F\	.
=157-	=157
.	.
2E\	.
=158-	=158
1D\	.
=159-	=159
2C/	-cto
1C/	Si-
=160-	=160
.	.
2BB,/	-cut
=161-	=161
1AA/	e-
=162	=162
2GG,/	-rat
1G\	in
=163-	=163
.	.
2F#X\	prin-
=164	=164
2.G\	-ci-
4G\	-pi-
=165	=165
2D,\	-o
*	*ij
1Fn\	in
=166-	=166
.	.
2E\	prin-
=167	=167
2.F\	-ci-
4F\	-pi-
=168-	=168
2C,/	-o
*	*Xij
2AA/	et
=169	=169
2BB/	nunc
2C/	et
=170	=170
!LO:SIC:v:t=custos GG	!
1D\	sem-
!!LO:PB:g=original
=171	=171
2GG,/	-per
1G\	et
=172-	=172
.	.
2F\	in
=173	=173
2.E\	sae-
4E\	-cu-
=174	=174
2D\	-la
1F\	sae-
=175-	=175
.	.
2E\	-cu-
=176	=176
2D/	-lo-
2C/	.
=177	=177
1G\	.
=178-	=178
2C,/	-rum
1C/	A-
=179-	=179
.	.
2BB/	-men
=180	=180
*	*ij
2AA/	A-
2GG/	.
=181	=181
1D\	.
=182	=182
1GG/	-men
*	*Xij
=183	=183
1C/	a-
=184-	=184
0GG/;	-men
=185-	=185
.	.
==	==
*-	*-
!!!RDF**kern: > = above
!!!RDF**kern: < = below
!!!EED: Leszek Kubiak
!!!EST: 2021-03-30
!!!AIN: 1 empty
!!!ENC: Andrzej Borzym
!!!END: 2021-03-10
